X: 26
T:Il Etait Une Bergere x026
T:Quadrille. WI.026
M:6/8
Q:120
C:"Quadrille"
S:Wm Irwin, 1838 MS, AGG's Transcription
R:Quadrille
O:England
A:Lake District
Z:vmp.Chris Partington.2005
K:D
A|d2e f2e|d3 AFd|BGd AFd|BGB AFA|!
d2e f2e|d3 -dfa|agf {f}ede|d3-d2|!
|A|D2A d2e|f2e d2c|B2d A2G|F2G A2A|!
D2A d2e|f2e d2d|efe dcB|A3-A2A|!
|e2e efe|d2d def|g2g gag|f3 f2f|!
e2e efe|d3 def|efe dcB|"DC"A3 ABc|]
